src/images/hero-img/female-student.svg

<svg width="34" height="41" viewBox="0 0 34 41" fill="none" xmlns="http://www.w3.org/2000/svg">
<g clip-path="url(#clip0)">
<path d="M-0.12838 40.1984C4.17281 40.1984 29.0563 40.1984 33.3525 40.1984C33.5183 36.3803 33.2448 30.0454 30.8973 27.0302L30.8124 26.9219L25.6826 24.3463C25.794 23.9706 25.8488 23.6264 25.8708 23.3735C25.8962 23.0698 25.8543 22.7846 25.7459 22.5262C24.8996 20.5011 23.1088 19.4356 22.1238 18.9815C22.424 18.3767 22.6175 17.7274 22.711 17.064C23.2686 16.9069 23.7171 16.465 23.8641 15.8755L24.4629 13.443C24.569 13.0139 24.5024 12.5688 24.2743 12.1903C24.1762 12.0272 24.0493 11.8898 23.9069 11.7723C25.5951 7.93766 22.7676 4.32194 22.6136 4.13162C19.5514 0.820773 15.683 1.43986 15.4785 1.47655C9.89581 2.64554 7.74143 6.924 8.95773 11.9419C8.59739 12.341 8.44615 12.8971 8.57967 13.4424L9.18139 15.8776C9.32728 16.4628 9.77223 16.9031 10.3259 17.0621C10.4967 18.2769 11.0109 19.3758 11.7662 20.2613V22.1897C3.75506 26.2923 8.83115 23.6749 2.41108 26.9228C2.39839 26.9834 -0.601359 30.1715 -0.155489 39.6211L-0.12838 40.1984ZM32.1891 38.9863H26.6788V36.6716L30.3233 28.3285C32.149 31.3588 32.2168 37.1448 32.1891 38.9863ZM24.6686 23.2705C24.456 25.7132 23.1164 24.9748 22.2894 26.8568C21.639 26.1416 21.4434 25.284 21.6182 24.366C21.934 22.6804 20.9052 22.1797 21.1595 20.4086L21.198 20.368V20.3624C21.2198 20.338 21.4227 20.0963 21.4815 20.02C23.6616 20.9704 24.7111 22.7379 24.6686 23.2705ZM12.9732 21.3505C13.9853 22.0525 15.207 22.4673 16.521 22.4673C17.7585 22.4673 18.9339 22.1072 19.9416 21.4441C20.0813 22.8365 20.6255 23.1153 20.4324 24.1399C20.3962 24.3301 20.3766 24.5175 20.365 24.7019L16.6123 28.9313L11.8152 23.523L12.9732 22.9183V21.3505H12.9732ZM11.4645 16.1744V13.8295C11.4645 12.966 11.4645 9.5401 11.4645 9.70927C12.0485 8.62913 12.8447 7.84581 13.8342 7.37617C16.4843 8.87562 19.5347 11.1134 21.5805 13.3655C21.5785 16.2336 21.5886 16.2414 21.5695 16.477L21.5682 16.492C21.4086 19.0964 19.2671 21.2552 16.521 21.2552C13.8513 21.2552 11.6348 19.1591 11.4745 16.4662C11.4662 16.3697 11.4645 16.273 11.4645 16.1744ZM10.7172 24.1079L16.6123 30.7536L20.5702 26.293C20.6606 26.5534 20.7875 26.7995 20.9326 27.0371L16.6124 32.4398L10.17 24.3826L10.7172 24.1079ZM22.7874 15.199V13.3267C22.8405 13.2659 23.2904 12.75 23.2374 12.8108C23.2622 13.7588 23.3646 12.6399 22.7874 15.199ZM15.7018 2.66766C15.9413 2.68257 19.1582 2.17834 21.7007 4.92323C21.8008 5.04885 23.8704 7.71542 23.039 10.6325C22.7544 9.33448 22.2583 7.67107 21.4744 6.87724L20.6175 7.73069C21.3915 8.51468 21.9 10.9021 22.0936 12.1398C18.5431 8.42452 13.963 6.07305 13.9002 6.03325C13.6705 6.17611 11.7323 6.5446 10.3247 9.28047L10.2575 9.41127V11.4206C10.1971 11.4213 10.0196 11.4231 10.0801 11.4225C9.18572 7.10458 10.8985 3.67445 15.7018 2.66766ZM9.9529 12.6694L10.2575 13.9035V15.2005L9.75127 13.1515C9.67699 12.8461 9.90325 12.7303 9.9529 12.6694ZM9.06547 24.9371L16.6123 34.3758L21.7184 27.9895C22.2739 28.4866 22.5409 28.5571 23.7186 29.1627L23.3214 27.8153C23.2206 27.4732 23.6196 26.9246 23.8606 26.6725C24.3986 26.3806 24.847 25.9644 25.1825 25.4506L29.3485 27.5425L25.4719 36.4177V38.9863H7.75224V36.4174L3.87381 27.5434L9.06547 24.9371ZM2.90022 28.3311L6.54528 36.6719V38.9863H1.03497C1.00728 37.1454 1.07564 31.3623 2.90022 28.3311Z" fill="#FF6B09"/>
</g>
<defs>
<clipPath id="clip0">
<rect width="33.1915" height="40" fill="white" transform="translate(0 0.5)"/>
</clipPath>
</defs>
</svg>

<svg width="34" height="41" fill="none" xmlns="http://www.w3.org/2000/svg"><g clip-path="url(#clip0)"><path d="M-.128 40.198h33.48c.166-3.818-.107-10.153-2.455-13.168l-.085-.108-5.13-2.576c.112-.375.167-.72.189-.973a1.785 1.785 0 00-.125-.847c-.846-2.025-2.637-3.09-3.622-3.544.3-.605.494-1.255.587-1.918a1.646 1.646 0 001.153-1.188l.599-2.433c.106-.43.04-.874-.189-1.253a1.64 1.64 0 00-.367-.418c1.688-3.834-1.14-7.45-1.293-7.64C19.55.82 15.683 1.44 15.478 1.477c-5.582 1.169-7.737 5.447-6.52 10.465-.36.399-.512.955-.378 1.5l.601 2.436c.146.585.591 1.025 1.145 1.184a6.265 6.265 0 001.44 3.2v1.928c-8.01 4.102-2.935 1.485-9.355 4.733-.013.06-3.012 3.249-2.566 12.698l.027.577zm32.317-1.212h-5.51v-2.314l3.644-8.343c1.826 3.03 1.894 8.816 1.866 10.657zm-7.52-15.715c-.213 2.442-1.553 1.704-2.38 3.586-.65-.715-.846-1.573-.67-2.491.315-1.686-.714-2.186-.46-3.957l.039-.041v-.006c.022-.024.225-.266.284-.342 2.18.95 3.23 2.718 3.187 3.25zm-11.696-1.92a6.207 6.207 0 006.969.093c.14 1.393.683 1.671.49 2.696-.036.19-.055.377-.067.562l-3.753 4.23-4.797-5.409 1.158-.605v-1.567zm-1.509-5.177V13.83 9.71c.585-1.08 1.38-1.863 2.37-2.333 2.65 1.5 5.7 3.737 7.747 5.99-.003 2.868.008 2.875-.011 3.111l-.002.015c-.16 2.604-2.3 4.763-5.047 4.763-2.67 0-4.886-2.096-5.046-4.789a3.398 3.398 0 01-.01-.292zm-.747 7.934l5.895 6.646 3.958-4.461c.09.26.218.506.363.744l-4.32 5.403-6.443-8.057.547-.275zm12.07-8.909v-1.872l.45-.516c.025.948.128-.171-.45 2.388zM15.702 2.668c.24.015 3.456-.49 5.999 2.255.1.126 2.17 2.792 1.338 5.71-.285-1.299-.78-2.962-1.565-3.756l-.857.854c.774.784 1.283 3.171 1.477 4.409-3.55-3.715-8.131-6.067-8.194-6.107-.23.143-2.168.512-3.575 3.247l-.067.131v2.01l-.178.002c-.894-4.318.819-7.749 5.622-8.755zm-5.75 10.001l.306 1.234V15.2l-.507-2.048c-.074-.306.152-.422.202-.483zm-.887 12.268l7.547 9.439 5.106-6.386c.556.497.823.567 2 1.173l-.397-1.348c-.1-.342.299-.89.54-1.143a3.652 3.652 0 001.322-1.221l4.166 2.091-3.877 8.876v2.568H7.752v-2.569l-3.878-8.874 5.191-2.606zM2.9 28.331l3.645 8.34v2.315h-5.51c-.028-1.84.04-7.624 1.865-10.655z" fill="#FF6B09"/></g><defs><clipPath id="clip0"><path fill="#fff" transform="translate(0 .5)" d="M0 0h33.191v40H0z"/></clipPath></defs></svg>
